public/icons/icon/github.svg

<svg width="30" height="30" viewBox="0 0 30 30" fill="none" xmlns="http://www.w3.org/2000/svg">
<path fill-rule="evenodd" clip-rule="evenodd" d="M14.9987 0.500017C6.99271 0.500017 0.5 6.99187 0.5 15.0005C0.5 21.406 4.6543 26.8412 10.4162 28.7594C11.1417 28.8921 11.406 28.4443 11.406 28.0598C11.406 27.7153 11.3936 26.8038 11.3865 25.5941C7.35322 26.47 6.50224 23.65 6.50224 23.65C5.84265 21.9748 4.89198 21.5288 4.89198 21.5288C3.57545 20.6298 4.99167 20.6476 4.99167 20.6476C6.44706 20.7499 7.21258 22.1421 7.21258 22.1421C8.50596 24.3577 10.6067 23.7177 11.4328 23.3465C11.5645 22.41 11.9392 21.7709 12.3532 21.4086C9.13351 21.0419 5.7483 19.7984 5.7483 14.2421C5.7483 12.6585 6.31354 11.3652 7.24107 10.3513C7.09152 9.98454 6.59393 8.51043 7.38349 6.51383C7.38349 6.51383 8.60031 6.12395 11.3704 7.99948C12.5267 7.67814 13.7676 7.51791 15.0004 7.51168C16.2324 7.51791 17.4724 7.67814 18.6305 7.99948C21.3988 6.12395 22.6138 6.51383 22.6138 6.51383C23.4052 8.51043 22.9076 9.98454 22.7589 10.3513C23.6883 11.3652 24.249 12.6585 24.249 14.2421C24.249 19.8126 20.8585 21.0383 17.629 21.3971C18.1489 21.8448 18.6127 22.7296 18.6127 24.0826C18.6127 26.0205 18.5948 27.5845 18.5948 28.0598C18.5948 28.4479 18.8566 28.8992 19.5918 28.7577C25.3493 26.8358 29.5 21.4051 29.5 15.0005C29.5 6.99187 23.0073 0.500017 14.9987 0.500017Z" fill="black"/>
</svg>

<svg xmlns="http://www.w3.org/2000/svg" width="30" height="30" fill="none"><path fill="#000" fill-rule="evenodd" d="M14.999.5C6.993.5.5 6.992.5 15c0 6.406 4.154 11.841 9.916 13.76.726.132.99-.316.99-.7 0-.345-.012-1.256-.02-2.466-4.033.876-4.884-1.944-4.884-1.944-.66-1.675-1.61-2.121-1.61-2.121-1.317-.9.1-.881.1-.881 1.455.102 2.22 1.494 2.22 1.494 1.294 2.216 3.395 1.576 4.22 1.204.133-.936.507-1.575.921-1.937-3.22-.367-6.605-1.61-6.605-7.167 0-1.584.566-2.877 1.493-3.89-.15-.367-.647-1.842.142-3.838 0 0 1.217-.39 3.987 1.485A13.926 13.926 0 0 1 15 7.512c1.232.006 2.472.166 3.63.487 2.769-1.875 3.984-1.485 3.984-1.485.791 1.996.294 3.47.145 3.837.93 1.014 1.49 2.307 1.49 3.891 0 5.57-3.39 6.796-6.62 7.155.52.448.984 1.333.984 2.686 0 1.938-.018 3.502-.018 3.977 0 .388.262.84.997.698C25.349 26.836 29.5 21.405 29.5 15 29.5 6.99 23.007.5 14.999.5Z" clip-rule="evenodd"/></svg>
